client/img/icon/solid/date.svg

<?xml version="1.0" encoding="UTF-8"?>
<svg width="32px" height="32px" viewBox="0 0 32 32" version="1.1" xmlns="http://www.w3.org/2000/svg" xmlns:xlink="http://www.w3.org/1999/xlink">
    <!-- Generator: sketchtool 47 (45396) - http://www.bohemiancoding.com/sketch -->
    <title>icon/solid/date</title>
    <desc>Created with sketchtool.</desc>
    <defs>
        <path d="M25,7 C26.104,7 27,7.896 27,9 L27,24 C27,25.104 26.104,26 25,26 L7,26 C5.896,26 5,25.104 5,24 L5,9 C5,7.896 5.896,7 7,7 L9,7 L9,9 L7,9 L7,24 L25,24 L25,9 L22,9 L22,11 L20,11 L20,5 L22,5 L22,7 L25,7 Z M12,9 L12,11 L10,11 L10,5 L12,5 L12,7 L19,7 L19,9 L12,9 Z M13,12.9995 L13,16.9995 L9,16.9995 L9,12.9995 L13,12.9995 Z M18,12.9995 L18,16.9995 L14,16.9995 L14,12.9995 L18,12.9995 Z M19,16.9995 L19,12.9995 L23,12.9995 L23,16.9995 L19,16.9995 Z M9,21.9995 L9,17.9995 L13,17.9995 L13,21.9995 L9,21.9995 Z M14,21.9995 L14,17.9995 L18,17.9995 L18,21.9995 L14,21.9995 Z" id="path-1"></path>
    </defs>
    <g id="Symbols" stroke="none" stroke-width="1" fill="none" fill-rule="evenodd">
        <g id="icon/solid/date">
            <mask id="mask-2" fill="white">
                <use xlink:href="#path-1"></use>
            </mask>
            <use id="calendar" fill="#000000" xlink:href="#path-1"></use>
            <g id="color/solid/primary" mask="url(#mask-2)" fill="#4A90E2">
                <g transform="translate(-24.000000, -24.000000)" id="color">
                    <rect x="0" y="0" width="80" height="80"></rect>
                </g>
            </g>
        </g>
    </g>
</svg>

<?xml version="1.0" encoding="utf-8"?>
<!-- Generator: Adobe Illustrator 23.0.0, SVG Export Plug-In . SVG Version: 6.00 Build 0)  -->
<svg version="1.1" id="Layer_1" xmlns="http://www.w3.org/2000/svg" xmlns:xlink="http://www.w3.org/1999/xlink" x="0px" y="0px"
	 viewBox="0 0 32 32" style="enable-background:new 0 0 32 32;" xml:space="preserve">
<style type="text/css">
	.st0{fill-rule:evenodd;clip-rule:evenodd;}
</style>
<g>
	<path class="st0" d="M25,7c1.1,0,2,0.9,2,2v15c0,1.1-0.9,2-2,2H7c-1.1,0-2-0.9-2-2V9c0-1.1,0.9-2,2-2h2v2H7v15h18V9h-3v2h-2V5h2v2
		H25z M12,9v2h-2V5h2v2h7v2H12z M13,13v4H9v-4H13z M18,13v4h-4v-4H18z M19,17v-4h4v4H19z M9,22v-4h4v4H9z M14,22v-4h4v4H14z"/>
</g>
</svg>
